X:5203
T:Polska från Tynderö
O:england
C:efter Ernst Ahlman
S:spelad av Gun-Britt Hermansson, Alnö
A:Medelpad
M:3/4
L:1/8
K:Dm
D2 F2 A2|D2 FD/F/ A2|{B}A>F DE FG|A>F EG FE|\
D2 F2 A2|G>B dB A2|A>^c df ec|A=B/^c/ d4::\
A>a (f/a/)f/d/ (e>^c)|A>a (f/a/)f/d/ (e>^c)|A>a fd e^c|\
d2 (A[G)A]  [FA][EA]|\
D>a (f/a/)f/d/ (e>^c)|A>a (f/a/)f/d/ (e>^c)|A>a fd e^c|A=B/^c/ d4:|
T:Andrastämma
A,2 D2 F2|A,2 DA,/D/ F2|F>D A,^C DE|F>D ^CE D(E/G/)|\
A>F D2 (FG)|B>d BG FE|D>E FA ^cA|({AB}A)G/E/ [F4A4]::\
A(a/f/) (d/A/)(F/D/) [A,E](A,/^C/)|D(a/f/) (d/A/)(F/D/) [A,E](E/G/)|\
A>f dA GE|F2 (D^C) DE|F(a/f/) (d/A/)(F/D/) [A,E](A,/^C/)|\
D(a/f/) (d/A/)(F/D/) [A,E](E/G/)|F>f dA GE|AG/E/ [F4A4]:|


